X: 166
T: Spring Garden
M:4/4
L:1/8
Q:160
S:Playford
O:Manuscript
A:English
K:C
A2 A c2 c|d>ed A3|A3 c3|d>ed ^c A2|A2 A c2 c|d>ed A3|A3 c3|d>ed ^c A2:|
|: f2 f g>fe|f a2 g2 e|f2 f g>fe|f a2 g2 e|fga g>fe|ded fga| A3 c3|d>ed ^cA2:|

